fs/border_top_bottom_thick_20_regular.svg

<svg viewBox="0 0 20 20" fill="none" xmlns="http://www.w3.org/2000/svg" height="1em" width="1em">
  <path d="M5.99996 4.50195C5.36604 4.50195 4.82397 4.89519 4.60436 5.45103C4.59564 5.48251 4.58476 5.51377 4.57165 5.54466C4.40983 5.92587 3.96962 6.10373 3.58841 5.94191C3.20723 5.78011 3.02937 5.33998 3.1911 4.95879H3.18629C3.61007 3.8162 4.70992 3.00195 5.99996 3.00195H14C15.29 3.00195 16.3898 3.8162 16.8136 4.95879H16.8105C16.9723 5.34 16.7944 5.78019 16.4132 5.942C16.032 6.10381 15.5918 5.92596 15.4299 5.54474L15.4257 5.53446C15.4167 5.51245 15.4089 5.49026 15.4021 5.46794C15.1869 4.90318 14.6403 4.50195 14 4.50195H5.99996ZM3.75 12.0007C3.33579 12.0007 3 11.6649 3 11.2507V8.75073C3 8.33652 3.33579 8.00073 3.75 8.00073C4.16421 8.00073 4.5 8.33652 4.5 8.75073V11.2507C4.5 11.6649 4.16421 12.0007 3.75 12.0007ZM14 15.5017H11.2886C11.2758 15.5011 11.2629 15.5007 11.25 15.5007H8.75C8.73705 15.5007 8.72418 15.5011 8.71139 15.5017H5.99996C5.36604 15.5017 4.82397 15.1085 4.60436 14.5526C4.59564 14.5212 4.58476 14.4899 4.57165 14.459C4.40983 14.0778 3.96962 13.8999 3.58841 14.0618C3.20723 14.2235 3.02937 14.6637 3.1911 15.0449H3.18629C3.61007 16.1875 4.70992 17.0017 5.99996 17.0017H14C15.29 17.0017 16.3898 16.1875 16.8136 15.0449H16.8105C16.9723 14.6637 16.7944 14.2235 16.4132 14.0617C16.032 13.8998 15.5918 14.0777 15.4299 14.4589L15.4257 14.4692C15.4167 14.4912 15.4089 14.5134 15.4021 14.5357C15.1869 15.1005 14.6403 15.5017 14 15.5017ZM15.5 11.2507C15.5 11.6649 15.8358 12.0007 16.25 12.0007C16.6642 12.0007 17 11.6649 17 11.2507V8.75073C17 8.33652 16.6642 8.00073 16.25 8.00073C15.8358 8.00073 15.5 8.33652 15.5 8.75073V11.2507Z" fill="#212121"/>
</svg>

<svg viewBox="0 0 20 20" fill="none" xmlns="http://www.w3.org/2000/svg" height="1em" width="1em">
  <path d="M6 4.502a1.5 1.5 0 0 0-1.396.949.75.75 0 1 1-1.413-.492h-.005A3.001 3.001 0 0 1 6 3.002h8c1.29 0 2.39.814 2.814 1.957h-.003a.75.75 0 0 1-1.381.586l-.004-.01A1.5 1.5 0 0 0 14 4.501H6ZM3.75 12a.75.75 0 0 1-.75-.75v-2.5a.75.75 0 0 1 1.5 0v2.5a.75.75 0 0 1-.75.75ZM14 15.5h-2.711a.825.825 0 0 0-.039 0H6a1.5 1.5 0 0 1-1.396-.948.75.75 0 1 0-1.413.492h-.005A3.001 3.001 0 0 0 6 17.002h8c1.29 0 2.39-.814 2.814-1.957h-.003a.75.75 0 0 0-1.381-.586l-.004.01A1.5 1.5 0 0 1 14 15.501Zm1.5-4.25a.75.75 0 0 0 1.5 0v-2.5a.75.75 0 0 0-1.5 0v2.5Z" fill="#212121"/>
</svg>
